svg/24/wave-mic--filled.svg

<svg width="24" height="24" viewBox="0 0 24 24" fill="currentColor" xmlns="http://www.w3.org/2000/svg"><path d="M8 4C8 2.89543 8.89543 2 10 2H14C15.1046 2 16 2.89543 16 4V11L8 11V4Z"/><path d="M8 12.5L16 12.5V16C16 17.1046 15.1046 18 14 18H12.75V20.5H16.25C16.6642 20.5 17 20.8358 17 21.25C17 21.6642 16.6642 22 16.25 22L7.75 22C7.33579 22 7 21.6642 7 21.25C7 20.8358 7.33579 20.5 7.75 20.5H11.25V18H10C8.89543 18 8 17.1046 8 16V12.5Z"/><path d="M5.75 10C6.16421 10 6.5 10.3358 6.5 10.75L6.5 13.25C6.5 13.6642 6.16421 14 5.75 14C5.33579 14 5 13.6642 5 13.25V10.75C5 10.3358 5.33579 10 5.75 10Z"/><path d="M18.25 10C18.6642 10 19 10.3358 19 10.75V13.25C19 13.6642 18.6642 14 18.25 14C17.8358 14 17.5 13.6642 17.5 13.25V10.75C17.5 10.3358 17.8358 10 18.25 10Z"/></svg>

<svg xmlns="http://www.w3.org/2000/svg" width="24" height="24" fill="currentColor" viewBox="0 0 24 24">
  <path d="M8 4a2 2 0 0 1 2-2h4a2 2 0 0 1 2 2v7H8V4Zm0 8.5h8V16a2 2 0 0 1-2 2h-1.25v2.5h3.5a.75.75 0 0 1 0 1.5h-8.5a.75.75 0 0 1 0-1.5h3.5V18H10a2 2 0 0 1-2-2v-3.5ZM5.75 10a.75.75 0 0 1 .75.75v2.5a.75.75 0 0 1-1.5 0v-2.5a.75.75 0 0 1 .75-.75Zm12.5 0a.75.75 0 0 1 .75.75v2.5a.75.75 0 0 1-1.5 0v-2.5a.75.75 0 0 1 .75-.75Z"/>
</svg>
